brandFactory_export/2.Regular/Turismo maleta _2Regular.svg

<?xml version="1.0" encoding="UTF-8"?>
<svg width="24px" height="24px" viewBox="0 0 24 24" version="1.1" xmlns="http://www.w3.org/2000/svg" xmlns:xlink="http://www.w3.org/1999/xlink">
    <title>2.Regular/Turismo maleta _2Regular</title>
    <g id="Symbols" stroke="none" stroke-width="1" fill="none" fill-rule="evenodd">
        <g id="2.Regular/Turismo-maleta-_2Regular" fill="#5CB615" fill-rule="nonzero">
            <path d="M17.3159664,21.2806723 L17.3159664,6.41344538 C17.3159664,6.35630252 17.2823529,6.28907563 17.2554622,6.25546218 L6.55294118,6.25546218 C6.52605042,6.29243697 6.49243697,6.35630252 6.49243697,6.41344538 L6.49243697,21.2773109 C6.49243697,21.3445378 6.52268908,21.405042 6.54285714,21.4352941 L17.2621849,21.4386555 C17.2890756,21.4084034 17.3159664,21.3478992 17.3159664,21.2806723 Z M9.59495798,1.46218487 L9.59495798,4.77983193 L14.2134454,4.77983193 L14.2134454,1.46218487 L9.59495798,1.46218487 Z M17.3394958,4.78991597 C18.1159664,4.78991597 18.794958,5.54621849 18.794958,6.41008403 L18.794958,21.2773109 C18.794958,22.1579832 18.1294118,22.9008403 17.3394958,22.9008403 L16.0857143,22.9008403 C15.9882353,23.5563025 15.4168067,23.6201681 15.2621849,23.6235294 L15.1815126,23.6235294 C15.0201681,23.6201681 14.4554622,23.5596639 14.3579832,22.9008403 L9.4907563,22.9008403 C9.39327731,23.5563025 8.82184874,23.6201681 8.66722689,23.6235294 L8.58655462,23.6235294 C8.42521008,23.6201681 7.8605042,23.5596639 7.76302521,22.9008403 L6.46554622,22.9008403 C5.67563025,22.9008403 5.01344538,22.1579832 5.01344538,21.2806723 L5.01344538,6.41344538 C5.01344538,5.54957983 5.69243697,4.79327731 6.46554622,4.79327731 L8.11596639,4.79327731 L8.11596639,1.06218487 C8.11596639,0.487394958 8.61680672,0.00336134454 9.20840336,0.00336134454 L14.5966387,0.00336134454 C15.1781513,0.00336134454 15.6890756,0.497478992 15.6890756,1.06218487 L15.6890756,4.79327731 L17.3394958,4.79327731 L17.3394958,4.78991597 Z M14.3378151,18.5411765 L14.3378151,12.6487395 L9.46722689,12.6487395 L9.46722689,18.5411765 L14.3378151,18.5411765 L14.3378151,18.5411765 Z M9.46722689,9.27394958 L9.46722689,11.1865546 L14.3378151,11.1865546 L14.3378151,9.27394958 L9.46722689,9.27394958 Z M14.7109244,7.81512605 C15.4033613,7.81512605 15.8201681,8.56134454 15.8201681,9.28067227 L15.8201681,18.5411765 C15.8201681,19.3747899 15.3428571,20.0067227 14.7109244,20.0067227 L9.10084034,20.0067227 C8.46890756,20.0067227 7.99159664,19.3781513 7.99159664,18.5411765 L7.99159664,9.27731092 C7.99159664,8.55798319 8.40504202,7.81176471 9.10084034,7.81176471 L14.7109244,7.81512605 Z" id="Turismo-maleta-_2Regular"></path>
        </g>
    </g>
</svg>

<svg width="24" height="24" viewBox="0 0 24 24" xmlns="http://www.w3.org/2000/svg"><path d="M17.316 21.28V6.414a.29.29 0 00-.06-.158H6.552a.3.3 0 00-.06.158v14.864c0 .068.03.128.05.158l10.72.004a.252.252 0 00.053-.158zM9.595 1.463V4.78h4.618V1.462H9.595zm7.744 3.328c.777 0 1.456.756 1.456 1.62v14.867c0 .881-.666 1.624-1.456 1.624h-1.253c-.098.655-.67.72-.824.723h-.08c-.162-.004-.727-.064-.824-.723H9.491c-.098.655-.67.72-.824.723h-.08c-.162-.004-.726-.064-.824-.723H6.466c-.79 0-1.453-.743-1.453-1.62V6.413c0-.863.68-1.62 1.453-1.62h1.65v-3.73c0-.576.5-1.06 1.092-1.06h5.389c.581 0 1.092.494 1.092 1.06v3.73h1.65V4.79zM14.338 18.54V12.65h-4.87v5.892h4.87zm-4.87-9.267v1.913h4.87V9.274h-4.87zm5.243-1.459c.692 0 1.11.746 1.11 1.466v9.26c0 .834-.478 1.466-1.11 1.466H9.1c-.632 0-1.11-.629-1.11-1.466V9.277c0-.719.414-1.465 1.11-1.465l5.61.003z" fill="#5CB615" fill-rule="nonzero"/></svg>
